Sources/FrostedUI/Resources/Icons.xcassets/volumeOff16.imageset/volume-off-16.svg

<svg width="16" height="16" viewBox="0 0 16 16" fill="none" xmlns="http://www.w3.org/2000/svg" data-fui-icon="true">
  <path
    d="M6.84961 2.2262C7.72405 1.57568 8.99969 2.19389 9 3.31409V12.6852C9 13.842 7.63984 14.4633 6.76562 13.7057L4.57227 11.8053C4.34504 11.6085 4.05453 11.4996 3.75391 11.4996H2.75C1.7835 11.4996 1 10.7161 1 9.74963V6.24963C1.00022 5.28332 1.78364 4.49963 2.75 4.49963H3.75391C4.05462 4.49963 4.34501 4.3909 4.57227 4.19397L6.76562 2.29358L6.84961 2.2262ZM5.55469 5.32776C5.05473 5.76099 4.41546 5.99963 3.75391 5.99963H2.75C2.61206 5.99963 2.50022 6.11175 2.5 6.24963V9.74963C2.5 9.8877 2.61193 9.99963 2.75 9.99963H3.75391C4.41537 9.99963 5.05476 10.2384 5.55469 10.6715L7.5 12.3561V3.64221L5.55469 5.32776ZM13.9697 5.96936C14.2626 5.67674 14.7374 5.67674 15.0303 5.96936C15.3231 6.26219 15.323 6.737 15.0303 7.02991L14.0605 7.99963L15.0303 8.96936C15.3231 9.26219 15.323 9.737 15.0303 10.0299C14.7374 10.3228 14.2626 10.3228 13.9697 10.0299L13 9.06018L12.0303 10.0299C11.7374 10.3228 11.2626 10.3228 10.9697 10.0299C10.677 9.737 10.6769 9.26219 10.9697 8.96936L11.9395 7.99963L10.9697 7.02991C10.677 6.737 10.6769 6.26219 10.9697 5.96936C11.2626 5.67674 11.7374 5.67674 12.0303 5.96936L13 6.93909L13.9697 5.96936Z"
    fill="currentColor"
  />
</svg>

<svg xmlns="http://www.w3.org/2000/svg" width="16" height="16" fill="none" data-fui-icon="true" viewBox="0 0 16 16"><path fill="currentColor" d="M6.85 2.226C7.724 1.576 9 2.194 9 3.314v9.371c0 1.157-1.36 1.778-2.234 1.02l-2.194-1.9a1.25 1.25 0 0 0-.818-.305H2.75A1.75 1.75 0 0 1 1 9.75v-3.5c0-.967.784-1.75 1.75-1.75h1.004c.3 0 .591-.11.818-.306l2.194-1.9zM5.555 5.328A2.75 2.75 0 0 1 3.754 6H2.75a.25.25 0 0 0-.25.25v3.5c0 .138.112.25.25.25h1.004c.661 0 1.3.238 1.8.672L7.5 12.356V3.642zm8.415.641a.75.75 0 0 1 1.06 1.06l-.97.97.97.97a.75.75 0 0 1-1.06 1.06L13 9.06l-.97.97a.75.75 0 1 1-1.06-1.06l.97-.97-.97-.97a.75.75 0 0 1 1.06-1.06l.97.97z"/></svg>
